X: 4290
T: CABIN DOWN THE LANE
%R: hornpipe, reel
B: James Kerr "Merry Melodies" v.4 p.31 #290
Z: 2016 John Chambers <jc:trillian.mit.edu>
M: C|
L: 1/8
K: G
(Bc) |\
d2(ed) dBGA | BGEG D3B |\
[1 c2(cd) edcB | A2A2A2 :|\
[2 BdBG EcAF | G2G2G2 |:\
(AB) |\
cBcd c2(Bc) |
dBBG A2(Bc) |\
d2BG (ed)cB | A2A2 A2(Bc) |\
dBec dBGA | BGEG D2(GA) |\
BdBG AcAF | G2G2G2 :|

%%sep 1 1 500
%%sep 1 1 500

